!! 00000] TT[WS
!!!OTL: Qiu shou
!!!ARE: Asia, China, Shanxi Jinbei
!! Ethnic Group: Han
!! WII, 249 (1)
!!!SCT: J0772
!!!YEM: Copyright 1995, estate of Helmut Schaffrath.
**kern
*ICvox
*Ivox
*M2/4
*k[f#]
*G:
{8.dd
16dd
8ee
16gg
16b
=1
16a
16g
4a
16gg
16ee
=2
16dd
16ee
16dd
16b
16a
16b
16a
16d
=3
2g}
=4
{8a
8dd
8cc
16b
16a
=5
8g
16f#
16e
8d
8dd
=6
8g
16f#
16e
16d
16e
16d
16A
=7
2d}
==
!!!AGN: Xiaodiao. Laodong, Xinminge
!!!ONB: ESAC (Essen Associative Code) Database: CHINA
!!!AMT: simple duple
!!!AIN: vox
!!!EED: Helmut Schaffrath
!!!EEV: 1.0
*-
